X: 198
T:Phoenix Reel, The
T:Hennessy's
C:Dave Hennessy
R:reel
M:C|
K:D
ag|:f2df edcA|~B2dB ABde|fd~d2 edcA|BcdB ABde|
fedf edcA|BcdB AGFE|Dddc defd|1 edBc dfag:|2 edce dBcA||
FBBA Bcde|~f3d edcA|FBBA Bcde|f2df edcA|
B2FB ~B2GB|BcdB cBAc|BG~G2 Bcde|1 fdec dBcA:|2 faef dfag||

